flags/other/olympics.svg

<svg width="512" height="512" viewBox="0 0 512 512" fill="none" xmlns="http://www.w3.org/2000/svg">
<rect width="512" height="512" fill="var(--flag-palette-white, #eeeeee)"/>
<path d="M109.6 153.1C90.6267 153.152 72.4456 160.713 59.0295 174.129C45.6133 187.545 38.0528 205.726 38 224.7C38.0528 243.673 45.6133 261.854 59.0295 275.27C72.4456 288.686 90.6267 296.247 109.6 296.3C128.573 296.247 146.754 288.686 160.171 275.27C173.587 261.854 181.147 243.673 181.2 224.7C181.147 205.726 173.587 187.545 160.171 174.129C146.754 160.713 128.573 153.152 109.6 153.1ZM109.6 173.1C138.2 173.1 161.2 196.1 161.2 224.7C161.2 253.3 138.2 276.3 109.6 276.3C81 276.3 58 253.3 58 224.7C58 196.1 81 173.1 109.6 173.1Z" fill="var(--flag-palette-light-blue, #338af3)"/>
<path d="M256 153.1C237.027 153.152 218.846 160.713 205.43 174.129C192.014 187.545 184.453 205.726 184.4 224.7C184.453 243.673 192.014 261.854 205.43 275.27C218.846 288.686 237.027 296.247 256 296.3C274.974 296.247 293.155 288.686 306.571 275.27C319.987 261.854 327.548 243.673 327.6 224.7C327.548 205.726 319.987 187.545 306.571 174.129C293.155 160.713 274.974 153.152 256 153.1ZM256 173.1C284.6 173.1 307.6 196.1 307.6 224.7C307.6 253.3 284.6 276.3 256 276.3C227.4 276.3 204.4 253.3 204.4 224.7C204.4 196.1 227.4 173.1 256 173.1Z" fill="var(--flag-palette-black, #333333)"/>
<path d="M402.4 153.1C383.427 153.152 365.245 160.713 351.829 174.129C338.413 187.545 330.853 205.726 330.8 224.7C330.853 243.673 338.413 261.854 351.829 275.27C365.245 288.686 383.427 296.247 402.4 296.3C421.373 296.247 439.554 288.686 452.97 275.27C466.387 261.854 473.947 243.673 474 224.7C473.947 205.726 466.387 187.545 452.97 174.129C439.554 160.713 421.373 153.152 402.4 153.1ZM402.4 173.1C431 173.1 454 196.1 454 224.7C454 253.3 431 276.3 402.4 276.3C373.8 276.3 350.8 253.3 350.8 224.7C350.8 196.1 373.8 173.1 402.4 173.1Z" fill="var(--flag-palette-bright-red, #d80027)"/>
<path d="M182.8 215.699C163.827 215.752 145.646 223.313 132.23 236.729C118.813 250.145 111.253 268.326 111.2 287.299C111.253 306.272 118.813 324.454 132.23 337.87C145.646 351.286 163.827 358.846 182.8 358.899C201.773 358.846 219.955 351.286 233.371 337.87C246.787 324.454 254.347 306.272 254.4 287.299C254.347 268.326 246.787 250.145 233.371 236.729C219.955 223.313 201.773 215.752 182.8 215.699ZM182.8 235.699C211.4 235.699 234.4 258.699 234.4 287.299C234.4 315.899 211.4 338.899 182.8 338.899C154.2 338.899 131.2 315.899 131.2 287.299C131.2 258.699 154.2 235.699 182.8 235.699Z" fill="var(--flag-palette-dark-yellow, #ffc635)"/>
<path d="M329.2 215.699C310.226 215.752 292.045 223.313 278.629 236.729C265.213 250.145 257.652 268.326 257.6 287.299C257.652 306.272 265.213 324.454 278.629 337.87C292.045 351.286 310.226 358.846 329.2 358.899C348.173 358.846 366.354 351.286 379.77 337.87C393.186 324.454 400.747 306.272 400.8 287.299C400.747 268.326 393.186 250.145 379.77 236.729C366.354 223.313 348.173 215.752 329.2 215.699ZM329.2 235.699C357.8 235.699 380.8 258.699 380.8 287.299C380.8 315.899 357.8 338.899 329.2 338.899C300.6 338.899 277.6 315.899 277.6 287.299C277.6 258.699 300.6 235.699 329.2 235.699Z" fill="var(--flag-palette-green, #6da544)"/>
<path d="M166.9 181.699L150.9 193.699C157.61 202.623 161.238 213.485 161.238 224.649C161.238 235.814 157.61 246.676 150.9 255.599L166.9 267.599C176.191 255.207 181.213 240.137 181.213 224.649C181.213 209.161 176.191 194.091 166.9 181.699Z" fill="var(--flag-palette-light-blue, #338af3)"/>
<path d="M313.3 181.699L297.3 193.699C304.01 202.623 307.638 213.485 307.638 224.649C307.638 235.814 304.01 246.676 297.3 255.599L313.3 267.599C322.591 255.207 327.612 240.137 327.612 224.649C327.612 209.161 322.591 194.091 313.3 181.699ZM225 265.999L213 281.999C225.411 291.289 240.498 296.306 256 296.299V276.299C244.823 276.321 233.942 272.706 225 265.999Z" fill="var(--flag-palette-black, #333333)"/>
<path d="M371.4 266L359.4 282C371.811 291.29 386.898 296.307 402.4 296.3V276.3C391.223 276.322 380.342 272.706 371.4 266Z" fill="var(--flag-palette-bright-red, #d80027)"/>
</svg>

<svg xmlns="http://www.w3.org/2000/svg" width="512" height="512" fill="none"><path fill="var(--flag-palette-white, #eeeeee)" d="M0 0h512v512H0z"/><path fill="var(--flag-palette-light-blue, #338af3)" d="M109.6 153.1A72 72 0 0 0 38 224.7a72 72 0 0 0 71.6 71.6 72 72 0 0 0 71.6-71.6 72 72 0 0 0-71.6-71.6m0 20c28.6 0 51.6 23 51.6 51.6s-23 51.6-51.6 51.6-51.6-23-51.6-51.6 23-51.6 51.6-51.6"/><path fill="var(--flag-palette-black, #333333)" d="M256 153.1a72 72 0 0 0-71.6 71.6 72 72 0 0 0 71.6 71.6 72 72 0 0 0 71.6-71.6 72 72 0 0 0-71.6-71.6m0 20c28.6 0 51.6 23 51.6 51.6s-23 51.6-51.6 51.6-51.6-23-51.6-51.6 23-51.6 51.6-51.6"/><path fill="var(--flag-palette-bright-red, #d80027)" d="M402.4 153.1a72 72 0 0 0-71.6 71.6 72 72 0 0 0 71.6 71.6 72 72 0 0 0 71.6-71.6 72 72 0 0 0-71.6-71.6m0 20c28.6 0 51.6 23 51.6 51.6s-23 51.6-51.6 51.6-51.6-23-51.6-51.6 23-51.6 51.6-51.6"/><path fill="var(--flag-palette-dark-yellow, #ffc635)" d="M182.8 215.7a72 72 0 0 0-71.6 71.6 72 72 0 0 0 71.6 71.6 72 72 0 0 0 71.6-71.6 72 72 0 0 0-71.6-71.6m0 20c28.6 0 51.6 23 51.6 51.6s-23 51.6-51.6 51.6-51.6-23-51.6-51.6 23-51.6 51.6-51.6"/><path fill="var(--flag-palette-green, #6da544)" d="M329.2 215.7a72 72 0 0 0-71.6 71.6 72 72 0 0 0 71.6 71.6 72 72 0 0 0 71.6-71.6 72 72 0 0 0-71.6-71.6m0 20c28.6 0 51.6 23 51.6 51.6s-23 51.6-51.6 51.6-51.6-23-51.6-51.6 23-51.6 51.6-51.6"/><path fill="var(--flag-palette-light-blue, #338af3)" d="m166.9 181.7-16 12a51.5 51.5 0 0 1 0 61.9l16 12a72 72 0 0 0 0-85.9"/><path fill="var(--flag-palette-black, #333333)" d="m313.3 181.7-16 12a51.5 51.5 0 0 1 0 61.9l16 12a72 72 0 0 0 0-85.9M225 266l-12 16a72 72 0 0 0 43 14.3v-20c-11.2 0-22-3.6-31-10.3"/><path fill="var(--flag-palette-bright-red, #d80027)" d="m371.4 266-12 16a72 72 0 0 0 43 14.3v-20c-11.2 0-22-3.6-31-10.3"/></svg>
